public/library/fomo-pay-icon-light.svg

<svg width="284" height="140" viewBox="0 0 284 140" fill="none" xmlns="http://www.w3.org/2000/svg">
<rect width="284" height="140" fill="white"/>
<rect width="284" height="140" fill="white"/>
<path d="M108.001 64.7393C108.001 61.2955 104.652 57.6379 98.8573 57.6379C92.3496 57.6379 85.2007 62.4118 84.1082 71.9357C82.9919 81.5547 88.9771 85.8298 95.0097 85.8298C101.042 85.8298 104.201 83.4785 107.431 80.3434C104.652 76.8521 101.066 78.4671 100.377 78.8234C99.6173 79.2034 98.6435 79.7259 96.6485 79.7259C94.3209 79.7259 91.9459 78.6809 91.9459 74.3345C106.861 72.862 108.001 68.1831 108.001 64.7393ZM100.615 65.3093C100.52 66.3781 100.092 68.2069 92.5396 69.2282C94.1309 63.5755 97.171 63.148 98.5723 63.148C99.8785 63.148 100.71 64.1693 100.615 65.3093ZM75.3443 66.2356C75.3443 66.2356 72.1379 76.3058 71.8767 77.1371C71.7817 76.2821 69.4304 58.2079 69.4304 58.2079C63.9678 58.2079 61.0465 62.103 59.5027 66.2119C59.5027 66.2119 55.6076 76.3058 55.2751 77.1608C55.2513 76.3771 54.6813 66.3306 54.6813 66.3306C54.3488 61.2955 49.7412 58.2317 46.0124 58.2317L50.525 85.616C56.2489 85.5923 59.3364 81.7209 60.9515 77.6121C60.9515 77.6121 64.3953 68.7057 64.5378 68.3019C64.5615 68.6819 67.0078 85.616 67.0078 85.616C72.7555 85.616 75.843 81.9822 77.5056 78.0159L85.557 58.2317C79.8806 58.2317 76.8881 62.103 75.3443 66.2356ZM129.092 57.5904C125.553 57.5904 122.845 59.5142 120.565 62.3405V62.3168L122.608 45.8577C117.905 45.8577 114.081 49.9428 113.345 56.0229L109.783 85.4023C112.49 85.4023 115.364 84.6185 116.908 82.6235C118.285 84.4047 120.351 85.8298 123.415 85.8298C131.348 85.8298 136.787 76.6146 136.787 67.9694C136.739 60.0842 132.915 57.5904 129.092 57.5904ZM128.355 71.722C127.524 76.5433 124.84 79.8209 122.252 79.8209C119.639 79.8209 118.523 78.6571 118.523 78.6571C119.021 74.4295 119.33 71.8407 120.28 69.6082C121.23 67.3756 123.487 63.813 125.838 63.813C128.142 63.813 129.187 66.8769 128.355 71.722ZM156.595 58.2317H151.061L151.085 57.9467C151.465 54.3366 152.32 52.4366 155.146 52.1278C157.07 51.9378 157.925 50.9403 158.139 49.8478C158.305 48.9927 158.827 46.0239 158.827 46.0239C147.712 45.9527 144.221 50.7503 143.318 58.0654L143.294 58.2317H143.176C141.371 58.2317 139.376 60.2742 139.043 62.863L138.924 63.813H142.629L139.518 89.5111L138.568 94.1187C138.687 94.1187 138.829 94.1424 138.948 94.1424C144.149 93.9524 147.475 89.8436 148.211 83.8822L150.633 63.813H152.367C154.077 63.813 156.072 62.103 156.428 59.253L156.595 58.2317ZM185.38 57.7567C178.991 57.7567 172.959 62.4593 171.106 69.8457C169.254 77.2321 172.056 85.9723 181.462 85.9723C190.843 85.9723 196.258 76.8758 196.258 69.2994C196.258 61.7705 191.152 57.7567 185.38 57.7567ZM187.969 71.4845C187.637 74.8333 186.164 79.9159 182.127 79.9159C178.065 79.9159 178.635 73.9783 179.039 71.152C179.466 68.1356 181.153 63.8368 184.787 63.8368C188.04 63.8368 188.349 67.7081 187.969 71.4845ZM227.823 66.2356C227.823 66.2356 224.616 76.3058 224.355 77.1371C224.26 76.2821 221.909 58.2079 221.909 58.2079C216.446 58.2079 213.525 62.103 211.981 66.2119C211.981 66.2119 208.086 76.3058 207.753 77.1608C207.73 76.3771 207.16 66.3306 207.16 66.3306C206.827 61.2955 202.219 58.2317 198.491 58.2317L202.98 85.616C208.703 85.5923 211.791 81.7209 213.406 77.6121C213.406 77.6121 216.85 68.7057 216.969 68.3019C217.016 68.6819 219.439 85.616 219.439 85.616C225.186 85.616 228.274 81.9822 229.936 78.0159L237.988 58.2317C232.335 58.2317 229.343 62.103 227.823 66.2356ZM161.82 46.0239L157.165 83.5735L156.215 88.2048C156.333 88.2048 156.476 88.2286 156.595 88.2286C161.606 88.1573 165.169 83.7635 165.834 78.2296L168.518 56.6879C169.325 50.109 165.406 46.0239 161.82 46.0239Z" fill="#4353FF"/>
</svg>

<svg xmlns="http://www.w3.org/2000/svg" width="284" height="140" fill="none" viewBox="0 0 284 140"><path fill="#fff" d="M0 0h284v140H0z"/><path fill="#fff" d="M0 0h284v140H0z"/><path fill="#4353ff" d="M108.001 64.74c0-3.444-3.349-7.102-9.144-7.102-6.507 0-13.656 4.774-14.749 14.298-1.116 9.619 4.87 13.894 10.902 13.894s9.191-2.352 12.421-5.487c-2.779-3.49-6.365-1.876-7.054-1.52-.76.38-1.733.903-3.728.903-2.328 0-4.703-1.045-4.703-5.391C106.86 72.862 108 68.183 108 64.739m-7.386.57c-.095 1.068-.523 2.897-8.075 3.918 1.59-5.652 4.631-6.08 6.032-6.08 1.306 0 2.138 1.021 2.043 2.161m-25.27.926s-3.207 10.07-3.468 10.901c-.095-.855-2.447-18.93-2.447-18.93-5.462 0-8.384 3.896-9.927 8.005 0 0-3.895 10.094-4.228 10.949-.024-.784-.594-10.83-.594-10.83-.332-5.036-4.94-8.1-8.669-8.1l4.513 27.385c5.724-.024 8.811-3.895 10.427-8.004 0 0 3.443-8.906 3.586-9.31.023.38 2.47 17.314 2.47 17.314 5.748 0 8.835-3.634 10.498-7.6l8.051-19.784c-5.676 0-8.669 3.871-10.213 8.004m53.747-8.646c-3.539 0-6.247 1.924-8.527 4.75v-.023l2.043-16.46c-4.703 0-8.527 4.086-9.263 10.166l-3.562 29.38c2.707 0 5.581-.785 7.125-2.78 1.377 1.782 3.443 3.207 6.507 3.207 7.933 0 13.372-9.215 13.372-17.86-.048-7.886-3.872-10.38-7.695-10.38m-.737 14.132c-.831 4.821-3.515 8.099-6.103 8.099-2.613 0-3.729-1.164-3.729-1.164.498-4.227.807-6.816 1.757-9.049s3.207-5.795 5.558-5.795c2.304 0 3.349 3.064 2.517 7.909m28.24-13.49h-5.534l.024-.285c.38-3.61 1.235-5.51 4.061-5.82 1.924-.19 2.779-1.187 2.993-2.28.166-.854.688-3.823.688-3.823-11.115-.071-14.606 4.726-15.509 12.041l-.024.167h-.118c-1.805 0-3.8 2.042-4.133 4.631l-.119.95h3.705l-3.111 25.698-.95 4.608c.119 0 .261.023.38.023 5.201-.19 8.527-4.298 9.263-10.26l2.422-20.069h1.734c1.71 0 3.705-1.71 4.061-4.56zm28.785-.475c-6.389 0-12.421 4.702-14.274 12.089-1.852 7.386.95 16.126 10.356 16.126 9.381 0 14.796-9.096 14.796-16.673 0-7.529-5.106-11.542-10.878-11.542m2.589 13.728c-.332 3.348-1.805 8.43-5.842 8.43-4.062 0-3.492-5.937-3.088-8.763.427-3.016 2.114-7.315 5.748-7.315 3.253 0 3.562 3.871 3.182 7.647m39.854-5.25s-3.207 10.07-3.468 10.902c-.095-.855-2.446-18.93-2.446-18.93-5.463 0-8.384 3.896-9.928 8.005 0 0-3.895 10.094-4.228 10.949-.023-.784-.593-10.83-.593-10.83-.333-5.036-4.941-8.1-8.669-8.1l4.489 27.385c5.723-.024 8.811-3.895 10.426-8.004 0 0 3.444-8.906 3.563-9.31.047.38 2.47 17.314 2.47 17.314 5.747 0 8.835-3.634 10.497-7.6l8.052-19.784c-5.653 0-8.645 3.871-10.165 8.004M161.82 46.025l-4.655 37.55-.95 4.63c.118 0 .261.025.38.025 5.011-.072 8.574-4.466 9.239-10l2.684-21.541c.807-6.579-3.112-10.664-6.698-10.664"/></svg>
